!!!OTL: さよならエレジー
**kern	**text	**dynam	**kern	**text	**dynam	**kern	**text	**dynam	**kern	**text	**dynam	**kern	**text	**dynam
*part5	*part5	*part5	*part4	*part4	*part4	*part3	*part3	*part3	*part2	*part2	*part2	*part1	*part1	*part1
*staff5	*staff5	*	*staff4	*staff4	*	*staff3	*staff3	*	*staff2	*staff2	*	*staff1	*staff1	*
*I"bass	*	*	*I"chorus3	*	*	*I"chorus2	*	*	*I"chorus1	*	*	*I"lead	*	*
*I'Pno.	*	*	*I'Pno.	*	*	*I'Pno.	*	*	*I'Pno.	*	*	*I'Pno.	*	*
*clefF4	*	*	*clefG2	*	*	*clefG2	*	*	*clefG2	*	*	*clefG2	*	*
*k[b-e-a-d-g-]	*	*	*k[b-e-a-d-g-]	*	*	*k[b-e-a-d-g-]	*	*	*k[b-e-a-d-g-]	*	*	*k[b-e-a-d-g-]	*	*
*M4/4	*	*	*M4/4	*	*	*M4/4	*	*	*M4/4	*	*	*M4/4	*	*
*MM155	*	*	*MM155	*	*	*MM155	*	*	*MM155	*	*	*MM155	*	*
=1	=1	=1	=1	=1	=1	=1	=1	=1	=1	=1	=1	=1	=1	=1
2.BB-	.	.	2.d-	.	.	2.f	tu	.	1r	.	.	4rdd	.	.
.	.	.	.	.	.	.	.	.	.	.	.	8r	.	.
.	.	.	.	.	.	.	.	.	.	.	.	8d-	ぼ	.
.	.	.	.	.	.	.	.	.	.	.	.	8d-L	く	.
.	.	.	.	.	.	.	.	.	.	.	.	8c	は	.
8r	.	.	8r	.	.	8r	.	.	.	.	.	8B-	い	.
[8AA-	.	.	[8c	.	.	[8e-	tu	.	.	.	.	[8A-J	ま	.
=2	=2	=2	=2	=2	=2	=2	=2	=2	=2	=2	=2	=2	=2	=2
1AA-]	.	.	1c]	.	.	1e-]	.	.	1r	.	.	2A-]	.	.
.	.	.	.	.	.	.	.	.	.	.	.	8r	.	.
.	.	.	.	.	.	.	.	.	.	.	.	8FL	む	.
.	.	.	.	.	.	.	.	.	.	.	.	8A-	く	.
.	.	.	.	.	.	.	.	.	.	.	.	[8B-J	ち	.
=3	=3	=3	=3	=3	=3	=3	=3	=3	=3	=3	=3	=3	=3	=3
2GG-	.	.	2d-	.	.	2g-	tu	.	1r	.	.	4B-]	.	.
.	.	.	.	.	.	.	.	.	.	.	.	8d-	な	.
.	.	.	.	.	.	.	.	.	.	.	.	4.c	そ	.
2AA-	.	.	2e-	.	.	2a-	tu	.	.	.	.	.	.	.
.	.	.	.	.	.	.	.	.	.	.	.	8A-L	ら	.
.	.	.	.	.	.	.	.	.	.	.	.	[8FJ	に	.
=4	=4	=4	=4	=4	=4	=4	=4	=4	=4	=4	=4	=4	=4	=4
1D-	.	.	1d-	.	.	1f	tu	.	1r	.	.	1F]	.	.
=5	=5	=5	=5	=5	=5	=5	=5	=5	=5	=5	=5	=5	=5	=5
2.BB-	.	.	2.d-	.	.	2.f	tu	.	1r	.	.	4r	.	.
.	.	.	.	.	.	.	.	.	.	.	.	8r	.	.
.	.	.	.	.	.	.	.	.	.	.	.	8d-	は	.
.	.	.	.	.	.	.	.	.	.	.	.	8d-L	き	.
.	.	.	.	.	.	.	.	.	.	.	.	8c	だ	.
8r	.	.	8r	.	.	8r	.	.	.	.	.	8B-	し	.
[8AA-	.	.	[8c	.	.	[8e-	tu	.	.	.	.	[8A-J	た	.
=6	=6	=6	=6	=6	=6	=6	=6	=6	=6	=6	=6	=6	=6	=6
1AA-]	.	.	1c]	.	.	1e-]	.	.	1r	.	.	2A-]	.	.
.	.	.	.	.	.	.	.	.	.	.	.	8r	.	.
.	.	.	.	.	.	.	.	.	.	.	.	8FL	こ	.
.	.	.	.	.	.	.	.	.	.	.	.	8A-	ど	.
.	.	.	.	.	.	.	.	.	.	.	.	[8B-J	く	.
=7	=7	=7	=7	=7	=7	=7	=7	=7	=7	=7	=7	=7	=7	=7
2GG-	.	.	2d-	.	.	2g-	tu	.	1r	.	.	8B-L]	.	.
.	.	.	.	.	.	.	.	.	.	.	.	8B-J	と	.
.	.	.	.	.	.	.	.	.	.	.	.	4B-	いう	.
2AA-	.	.	2e-	.	.	2a-	tu	.	.	.	.	8A-L	な	.
.	.	.	.	.	.	.	.	.	.	.	.	8F	の	.
.	.	.	.	.	.	.	.	.	.	.	.	8E-	く	.
.	.	.	.	.	.	.	.	.	.	.	.	[8D-J	も	.
=8	=8	=8	=8	=8	=8	=8	=8	=8	=8	=8	=8	=8	=8	=8
2BB-	.	.	2d-	.	.	2f	tu	.	2r	.	.	4D-]	.	.
.	.	.	.	.	.	.	.	.	.	.	.	4r	.	.
8r	.	.	8r	.	.	8r	.	.	8r	.	.	2r	.	.
[8AA-	.	.	[8c	.	.	[8e-	.	.	[8a-	oh	.	.	.	.
4AA-]	.	.	4c]	.	.	4e-]	.	.	4a-]	.	.	.	.	.
=9	=9	=9	=9	=9	=9	=9	=9	=9	=9	=9	=9	=9	=9	=9
4BB-	.	.	4B-'	.	.	4d-'	.	.	4f'	pa	.	4r	.	.
8r	.	.	8r	.	.	8r	.	.	8r	.	.	8r	.	.
[8BB-	.	.	[8B-	.	.	[8d-	.	.	[8f	pa	.	8d-	そ	.
4BB-]	.	.	4B-]	.	.	4d-]	.	.	4f]	.	.	8d-L	の	.
.	.	.	.	.	.	.	.	.	.	.	.	8c	く	.
4BB-	.	.	4B-	.	.	4d-	.	.	4f	pa	.	8B-	も	.
.	.	.	.	.	.	.	.	.	.	.	.	[8A-J	が	.
=10	=10	=10	=10	=10	=10	=10	=10	=10	=10	=10	=10	=10	=10	=10
4AA-	.	.	4A-'	.	.	4c'	pa	.	4e-'	pa	.	2A-]	.	.
8r	.	.	8r	.	.	8r	.	.	8r	.	.	.	.	.
[8AA-	.	.	[8A-	.	.	[8c	pa	.	4e-	pa	.	.	.	.
4AA-]	.	.	4A-]	.	.	4c]	.	.	.	.	.	8r	.	.
.	.	.	.	.	.	.	.	.	8A-L	あ	.	8FL	あ	.
4AA-	.	.	4A-	.	.	4c	pa	.	8c	め	.	8A-	め	.
.	.	.	.	.	.	.	.	.	[8d-J	を	.	[8B-J	を	.
=11	=11	=11	=11	=11	=11	=11	=11	=11	=11	=11	=11	=11	=11	=11
4GG-	.	.	2B-	.	.	2d-	uh	.	4d-]	.	.	4B-]	.	.
8r	.	.	.	.	.	.	.	.	8f	ふ	.	8d-	ふ	.
[8AA-	.	.	.	.	.	.	.	.	4.e-	ら	.	4.c	ら	.
4AA-]	.	.	2c	.	.	2e-	uh	.	.	.	.	.	.	.
4AA-	.	.	.	.	.	.	.	.	8cL	せ	.	8A-L	せ	.
.	.	.	.	.	.	.	.	.	[8fJ	て	.	[8FJ	て	.
=12	=12	=12	=12	=12	=12	=12	=12	=12	=12	=12	=12	=12	=12	=12
2D-	.	.	4d-	.	.	4f	.	.	4f]	.	.	1F]	.	.
.	.	.	(4A-	.	.	(4d-	.	.	(4d-	wow	.	.	.	.
4D-	.	.	4d-)	.	.	4f)	.	.	4a-)	.	.	.	.	.
4C	.	.	4c	.	.	4e-	.	.	4g-	.	.	.	.	.
=13	=13	=13	=13	=13	=13	=13	=13	=13	=13	=13	=13	=13	=13	=13
4BB-	.	.	4B-'	.	.	4d-'	.	.	4f'	pa	.	4r	.	.
8r	.	.	8r	.	.	8r	.	.	8r	.	.	8r	.	.
[8BB-	.	.	[8B-	.	.	[8d-	.	.	[8f	pa	.	8d-	に	.
4BB-]	.	.	4B-]	.	.	4d-]	.	.	4f]	.	.	8d-L	じ	.
.	.	.	.	.	.	.	.	.	.	.	.	8c	が	.
4BB-	.	.	4B-	.	.	4d-	.	.	4f	pa	.	8B-	で	.
.	.	.	.	.	.	.	.	.	.	.	.	[8A-J	る	.
=14	=14	=14	=14	=14	=14	=14	=14	=14	=14	=14	=14	=14	=14	=14
4AA-	.	.	4A-'	.	.	4c'	pa	.	4e-'	ba	.	2A-]	.	.
8r	.	.	8r	.	.	8r	.	.	8r	.	.	.	.	.
[8AA-	.	.	[8A-	.	.	[8c	pa	.	4e-	pa	.	.	.	.
4AA-]	.	.	4A-]	.	.	4c]	.	.	.	.	.	8r	.	.
.	.	.	.	.	.	.	.	.	8A-L	ど	.	8FL	ど	.
4AA-	.	.	4A-	.	.	4c	pa	.	8c	う	.	8A-	う	.
.	.	.	.	.	.	.	.	.	[8d-J	せ	.	[8B-J	せ	.
=15	=15	=15	=15	=15	=15	=15	=15	=15	=15	=15	=15	=15	=15	=15
4GG-	.	.	2B-	.	.	2d-	uh	.	8d-L]	.	.	8B-L]	.	.
.	.	.	.	.	.	.	.	.	8d-	つ	.	8B-	つ	.
8r	.	.	.	.	.	.	.	.	8d-	か	.	8B-	か	.
[8AA-	.	.	.	.	.	.	.	.	8fJ	め	.	8d-J	め	.
4AA-]	.	.	2c	.	.	2f	uh	.	8e-L	な	.	8cL	な	.
.	.	.	.	.	.	.	.	.	8d-	い	.	8B-	い	.
4AA-	.	.	.	.	.	.	.	.	8c	の	.	8An	の	.
.	.	.	.	.	.	.	.	.	[8d-J	に	.	[8B-J	に	.
=16	=16	=16	=16	=16	=16	=16	=16	=16	=16	=16	=16	=16	=16	=16
4BB-	.	.	4.d-	.	.	4.f	pa	.	1d-]	.	.	1B-]	.	.
8r	.	.	.	.	.	.	.	.	.	.	.	.	.	.
[8BB-	.	.	[8d-	.	.	[8f	pa	.	.	.	.	.	.	.
4BB-]	.	.	4d-]	.	.	4f]	.	.	.	.	.	.	.	.
4BB-	.	.	4d-	.	.	4f	pa	.	.	.	.	.	.	.
=17	=17	=17	=17	=17	=17	=17	=17	=17	=17	=17	=17	=17	=17	=17
4E-	.	.	1B-	.	.	1e-	ah	.	[1g-	ah	.	4r	.	.
8r	.	.	.	.	.	.	.	.	.	.	.	4e-	は	.
[8BB-	.	.	.	.	.	.	.	.	.	.	.	.	.	.
4BB-]	.	.	.	.	.	.	.	.	.	.	.	4e-	じ	.
4D-	.	.	.	.	.	.	.	.	.	.	.	4d-	め	.
=18	=18	=18	=18	=18	=18	=18	=18	=18	=18	=18	=18	=18	=18	=18
4E-	.	.	4B-	.	.	4e-	pa	.	1g-]	.	.	4en	て	.
8r	.	.	8r	.	.	8r	.	.	.	.	.	4e-X	の	.
8E-	.	.	[8B-	.	.	[8e-	pa	.	.	.	.	.	.	.
4F	.	.	4B-]	.	.	4e-]	.	.	.	.	.	4d-	キ	.
4G-	.	.	4B-	.	.	4e-	pa	.	.	.	.	4e-	ス	.
=19	=19	=19	=19	=19	=19	=19	=19	=19	=19	=19	=19	=19	=19	=19
4BB-	.	.	4r	.	.	4r	.	.	4r	.	.	1f	を	.
8r	.	.	4d-	.	.	4f	.	.	4f	は	.	.	.	.
8BB-	.	.	.	.	.	.	.	.	.	.	.	.	.	.
4FF	.	.	4d-	.	.	4f	.	.	4f	じ	.	.	.	.
4AA-	.	.	4B-	.	.	4d-	.	.	4d-	め	.	.	.	.
=20	=20	=20	=20	=20	=20	=20	=20	=20	=20	=20	=20	=20	=20	=20
4BB-	.	.	4d-	.	.	4f	.	.	4a-	て	.	1r	.	.
8r	.	.	4c	.	.	4e-	.	.	4g-	の	.	.	.	.
8BB-	.	.	.	.	.	.	.	.	.	.	.	.	.	.
4FF	.	.	4B-	.	.	4d-	.	.	4f	キ	.	.	.	.
4AA-	.	.	4A-	.	.	4c	.	.	4e-	ス	.	.	.	.
=21	=21	=21	=21	=21	=21	=21	=21	=21	=21	=21	=21	=21	=21	=21
4BBn	.	.	2.Bn	.	.	2.e-	ha	.	1g-	ha	.	4r	.	.
8r	.	.	.	.	.	.	.	.	.	.	.	4e-	く	.
[8BB	.	.	.	.	.	.	.	.	.	.	.	.	.	.
4BB]	.	.	.	.	.	.	.	.	.	.	.	4e-	り	.
4BB	.	.	4B	.	.	4e-	ah	.	.	.	.	4d-	か	.
=22	=22	=22	=22	=22	=22	=22	=22	=22	=22	=22	=22	=22	=22	=22
4AAn	.	.	4An	.	.	4d-	.	.	4en	pa	.	4en	え	.
8r	.	.	8r	.	.	8r	.	.	8r	.	.	4e-X	し	.
[8AA	.	.	[8A	.	.	[8d-	.	.	[8e	pa	.	.	.	.
4AA]	.	.	4A]	.	.	4d-]	.	.	4e]	.	.	4d-	て	.
4AA	.	.	4A	.	.	4d-	.	.	4e	pa	.	4e-	ほ	.
=23	=23	=23	=23	=23	=23	=23	=23	=23	=23	=23	=23	=23	=23	=23
4FF	.	.	4An	.	.	4c	.	.	4f	pa	.	4.d-	し	.
8r	.	.	8r	.	.	8r	.	.	8r	.	.	.	.	.
[8FF	.	.	[8A	.	.	[8c	.	.	[8f	pa	.	8c	く	.
4FF]	.	.	4A]	.	.	4c]	.	.	4f]	.	.	2c	て	.
4FF	.	.	4A	.	.	4c	.	.	4f	pa	.	.	.	.
=24	=24	=24	=24	=24	=24	=24	=24	=24	=24	=24	=24	=24	=24	=24
8FFL	.	.	8cL	.	.	8fL	.	.	8anL	ba	.	1r	.	.
8FFJ	.	.	8cJ	.	.	8fJ	.	.	8aJ	ba	.	.	.	.
8r	.	.	8r	.	.	8r	.	.	8r	.	.	.	.	.
8FF	.	.	8c	.	.	8f	.	.	8a	ba	.	.	.	.
8FF	.	.	8c	.	.	8f	.	.	8a	ba	.	.	.	.
8r	.	.	8r	.	.	8r	.	.	8r	.	.	.	.	.
8FFL	.	.	8cL	.	.	8fL	.	.	8aL	ba	.	.	.	.
8FFJ	.	.	8cJ	.	.	8fJ	.	.	8aJ	ba	.	.	.	.
=25	=25	=25	=25	=25	=25	=25	=25	=25	=25	=25	=25	=25	=25	=25
1r	.	.	1r	.	.	1r	.	.	1r	.	.	4r	.	.
.	.	.	.	.	.	.	.	.	.	.	.	4g-	あ	.
.	.	.	.	.	.	.	.	.	.	.	.	4f	い	.
.	.	.	.	.	.	.	.	.	.	.	.	4e-	が	.
=26	=26	=26	=26	=26	=26	=26	=26	=26	=26	=26	=26	=26	=26	=26
4BB-	.	.	4B-	.	.	4d-	.	.	4f	pa	.	8d-L	ぼ	.
.	.	.	.	.	.	.	.	.	.	.	.	8d-	く	.
8r	.	.	8r	.	.	8r	.	.	8r	.	.	8d-	に	.
[8BB-	.	.	[8B-	.	.	[8d-	.	.	[8f	pa	.	8cJ	か	.
4BB-]	.	.	4B-]	.	.	4d-]	.	.	4f]	.	.	8d-L	み	.
.	.	.	.	.	.	.	.	.	.	.	.	8e-	つ	.
4BB-	.	.	4B-	.	.	4d-	.	.	4f	pa	.	8f	い	.
.	.	.	.	.	.	.	.	.	.	.	.	[8fJ	て	.
=27	=27	=27	=27	=27	=27	=27	=27	=27	=27	=27	=27	=27	=27	=27
4FF	.	.	4A-	.	.	4c	.	.	4f	pa	.	2f]	.	.
8r	.	.	8r	.	.	8r	.	.	8r	.	.	.	.	.
[8FF	.	.	[8A-	.	.	[8c	.	.	[8f	pa	.	.	.	.
4FF]	.	.	4A-]	.	.	8cL]	.	.	4f]	.	.	8r	.	.
.	.	.	.	.	.	8c	は	.	.	.	.	8A-L	は	.
4FF	.	.	4A-	.	.	8c	な	.	4f	pa	.	8A-	な	.
.	.	.	.	.	.	8cJ	さ	.	.	.	.	8A-J	さ	.
=28	=28	=28	=28	=28	=28	=28	=28	=28	=28	=28	=28	=28	=28	=28
4GG-	.	.	2B-	.	.	4d-	ない	.	2d-	ah	.	4B-	ない	.
8r	.	.	.	.	.	8fL	と	.	.	.	.	8d-L	と	.
[8AA-	.	.	.	.	.	8fJ	い	.	.	.	.	8d-J	い	.
4AA-]	.	.	2c	.	.	8g-L	う	.	2e-	.	.	8e-L	う	.
.	.	.	.	.	.	8f	け	.	.	.	.	8d-	け	.
4AA-	.	.	.	.	.	8g-	れ	.	.	.	.	8e-	れ	.
.	.	.	.	.	.	8g-J	ど	.	.	.	.	8e-J	ど	.
=29	=29	=29	=29	=29	=29	=29	=29	=29	=29	=29	=29	=29	=29	=29
4D-	.	.	4r	.	.	4a-	.	.	4r	.	.	2f	.	.
8r	.	.	(4A-	.	.	(4d-	.	.	(4d-	wow	.	.	.	.
[8D-	.	.	.	.	.	.	.	.	.	.	.	.	.	.
4D-]	.	.	4d-)	.	.	4f)	.	.	4a-)	.	.	4r	.	.
4C	.	.	4c	.	.	4e-	.	.	4g-	.	.	8r	.	.
.	.	.	.	.	.	.	.	.	.	.	.	8A-	さ	.
=30	=30	=30	=30	=30	=30	=30	=30	=30	=30	=30	=30	=30	=30	=30
4BB-	.	.	4B-	.	.	4d-	.	.	4f	pa	.	4d-	みし	.
8r	.	.	8r	.	.	8r	.	.	8r	.	.	8d-L	さ	.
[8BB-	.	.	[8B-	.	.	[8d-	.	.	[8f	pa	.	8cJ	の	.
4BB-]	.	.	2B-]	.	.	2d-]	.	.	2f]	.	.	8d-L	か	.
.	.	.	.	.	.	.	.	.	.	.	.	8e-	た	.
4BB-	.	.	.	.	.	.	.	.	.	.	.	8f	ち	.
.	.	.	.	.	.	.	.	.	.	.	.	8fJ	は	.
=31	=31	=31	=31	=31	=31	=31	=31	=31	=31	=31	=31	=31	=31	=31
4GG-	.	.	4d-	.	.	4g-	pa	.	4r	.	.	4r	.	.
8r	.	.	8r	.	.	8r	.	.	8b-L	か	.	8g-L	か	.
[8GG-	.	.	[8d-	.	.	[8g-	pa	.	[8a-J	わ	.	[8fJ	わ	.
4GG-]	.	.	4d-]	.	.	4g-]	.	.	4a-]	.	.	4f]	.	.
4GG-	.	.	4d-	.	.	4g-	pa	.	8g-L	ら	.	8e-L	ら	.
.	.	.	.	.	.	.	.	.	[8g-J	な	.	[8e-J	な	.
=32	=32	=32	=32	=32	=32	=32	=32	=32	=32	=32	=32	=32	=32	=32
4AA-	.	.	4e-	.	.	4a-	pa	.	4g-]	い	.	4e-]	い	.
8r	.	.	8r	.	.	8r	.	.	8a-L	み	.	8fL	み	.
[8AA-	.	.	[8e-	.	.	[8a-	pa	.	[8fJ	た	.	[8d-J	た	.
4AA-]	.	.	4e-]	.	.	4a-]	.	.	8fL]	.	.	8d-L]	.	.
.	.	.	.	.	.	.	.	.	8e-	.	.	8c	.	.
4AA-	.	.	4e-	.	.	4a-	pa	.	8e-	い	.	8c	い	.
.	.	.	.	.	.	.	.	.	[8fJ	だ	.	[8d-J	だ	.
=33	=33	=33	=33	=33	=33	=33	=33	=33	=33	=33	=33	=33	=33	=33
4D-	.	.	2A-	.	.	2a-	ha	.	2f]	.	.	1d-]	.	.
8r	.	.	.	.	.	.	.	.	.	.	.	.	.	.
[8D-	.	.	.	.	.	.	.	.	.	.	.	.	.	.
8D-L]	.	.	2d-	.	.	2f	.	.	2an	ah	.	.	.	.
8D-	.	.	.	.	.	.	.	.	.	.	.	.	.	.
8C	.	.	.	.	.	.	.	.	.	.	.	.	.	.
8CJ	.	.	.	.	.	.	.	.	.	.	.	.	.	.
=34	=34	=34	=34	=34	=34	=34	=34	=34	=34	=34	=34	=34	=34	=34
4BB-	.	.	4B-	.	.	4d-	.	.	4f	pa	.	8d-L	ま	.
.	.	.	.	.	.	.	.	.	.	.	.	8d-	い	.
8r	.	.	8r	.	.	8r	.	.	8r	.	.	8d-	あ	.
[8BB-	.	.	[8B-	.	.	[8d-	.	.	[8f	pa	.	8d-J	がっ	.
4BB-]	.	.	4B-]	.	.	4d-]	.	.	4f]	.	.	8r	.	.
.	.	.	.	.	.	.	.	.	.	.	.	8e-L	て	.
4BB-	.	.	4B-	.	.	4d-	.	.	4f	pa	.	8f	ゆ	.
.	.	.	.	.	.	.	.	.	.	.	.	[8fJ	け	.
=35	=35	=35	=35	=35	=35	=35	=35	=35	=35	=35	=35	=35	=35	=35
4FF	.	.	4A-	.	.	4c	pa	.	4f	pa	.	2f]	.	.
8r	.	.	8r	.	.	8r	.	.	8r	.	.	.	.	.
[8FF	.	.	[8A-	.	.	[8c	pa	.	[8f	pa	.	.	.	.
4FF]	.	.	4A-]	.	.	8cL]	.	.	4f]	.	.	8r	.	.
.	.	.	.	.	.	8c	い	.	.	.	.	8A-L	い	.
4FF	.	.	4A-	.	.	8c	つ	.	4f	pa	.	8A-	つ	.
.	.	.	.	.	.	8cJ	か	.	.	.	.	8A-J	か	.
=36	=36	=36	=36	=36	=36	=36	=36	=36	=36	=36	=36	=36	=36	=36
4GG-	.	.	2B-	.	.	8d-L	よ	.	2d-	ha	.	8B-L	よ	.
.	.	.	.	.	.	8d-	る	.	.	.	.	8B-	る	.
8r	.	.	.	.	.	8f	の	.	.	.	.	8d-	の	.
[8AA-	.	.	.	.	.	8fJ	む	.	.	.	.	8d-J	む	.
4AA-]	.	.	2c	.	.	8g-L	こ	.	2e-	.	.	8e-L	こ	.
.	.	.	.	.	.	8f	う	.	.	.	.	8d-	う	.
4AA-	.	.	.	.	.	8g-	が	.	.	.	.	8e-	が	.
.	.	.	.	.	.	8g-J	わ	.	.	.	.	8e-J	わ	.
=37	=37	=37	=37	=37	=37	=37	=37	=37	=37	=37	=37	=37	=37	=37
4D-	.	.	4r	.	.	4a-	.	.	4r	.	.	2f	.	.
8r	.	.	(4A-	.	.	(4d-	.	.	(4d-	wow	.	.	.	.
[8D-	.	.	.	.	.	.	.	.	.	.	.	.	.	.
4D-]	.	.	4d-)	.	.	4f)	.	.	4a-)	.	.	4r	.	.
4C	.	.	4c	.	.	4e-	.	.	4g-	.	.	4r	.	.
=38	=38	=38	=38	=38	=38	=38	=38	=38	=38	=38	=38	=38	=38	=38
4BB-	.	.	4B-	.	.	4d-	.	.	4f	pa	.	4d-	うん	.
8r	.	.	8r	.	.	8r	.	.	8r	.	.	8d-L	ざ	.
[8BB-	.	.	[8B-	.	.	[8d-	.	.	[8f	pa	.	8cJ	り	.
4BB-]	.	.	2B-]	.	.	2d-]	.	.	2f]	.	.	8d-L	す	.
.	.	.	.	.	.	.	.	.	.	.	.	8e-	る	.
4BB-	.	.	.	.	.	.	.	.	.	.	.	8f	ほ	.
.	.	.	.	.	.	.	.	.	.	.	.	8fJ	ど	.
=39	=39	=39	=39	=39	=39	=39	=39	=39	=39	=39	=39	=39	=39	=39
4GG-	.	.	4d-	.	.	4g-	pa	.	4r	.	.	4r	.	.
8r	.	.	8r	.	.	8r	.	.	8b-L	ひ	.	8g-L	ひ	.
[8GG-	.	.	[8d-	.	.	[8g-	pa	.	[8a-J	か	.	[8fJ	か	.
4GG-]	.	.	4d-]	.	.	4g-]	.	.	4a-]	.	.	4f]	.	.
4GG-	.	.	4d-	.	.	4g-	pa	.	8g-L	れ	.	8e-L	れ	.
.	.	.	.	.	.	.	.	.	[8g-J	き	.	[8e-J	き	.
=40	=40	=40	=40	=40	=40	=40	=40	=40	=40	=40	=40	=40	=40	=40
4AA-	.	.	4e-	.	.	4a-	pa	.	4g-]	.	.	4e-]	.	.
8r	.	.	8r	.	.	8r	.	.	8a-L	み	.	8fL	み	.
[8AA-	.	.	[8e-	.	.	[8a-	pa	.	[8fJ	の	.	[8d-J	の	.
4AA-]	.	.	4e-]	.	.	4a-]	.	.	8fL]	.	.	8d-L]	.	.
.	.	.	.	.	.	.	.	.	8e-	.	.	8c	.	.
4AA-	.	.	4e-	.	.	4a-	pa	.	8e-	う	.	8c	う	.
.	.	.	.	.	.	.	.	.	8fJ	た	.	[8d-J	た	.
=41	=41	=41	=41	=41	=41	=41	=41	=41	=41	=41	=41	=41	=41	=41
4D-	.	.	4d-	.	.	4a-	pa	.	2f	.	.	2d-]	.	.
8AA-L	.	.	8r	.	.	8r	.	.	.	.	.	.	.	.
[8D-J	.	.	[8d-	.	.	[8a-	pa	.	.	.	.	.	.	.
4D-]	.	.	4d-]	.	.	4a-]	.	.	4r	.	.	4r	.	.
8D-L	.	.	8d-L	.	.	8fL	.	.	8a-L	な	.	8a-L	な	.
8AA-J	.	.	[8d-J	.	.	[8fJ	.	.	[8a-J	が	.	[8a-J	が	.
=42	=42	=42	=42	=42	=42	=42	=42	=42	=42	=42	=42	=42	=42	=42
4GG-	.	.	4d-]	.	.	4f]	.	.	4a-]	.	.	4a-]	.	.
8r	.	.	8B-L	.	.	8e-L	.	.	8g-L	れ	.	8g-L	れ	.
[8GG-	.	.	[8B-J	.	.	[8e-J	.	.	[8g-J	ぼ	.	[8g-J	ぼ	.
4GG-]	.	.	4B-]	.	.	4e-]	.	.	4g-]	.	.	4g-]	.	.
4GG-	.	.	8A-L	.	.	8d-L	.	.	8fL	し	.	8fL	し	.
.	.	.	[8A-J	.	.	[8d-J	.	.	[8fJ	を	.	[8fJ	を	.
=43	=43	=43	=43	=43	=43	=43	=43	=43	=43	=43	=43	=43	=43	=43
4AA-	.	.	8A-L]	.	.	8d-L]	.	.	8fL]	.	.	8fL]	.	.
.	.	.	8G-	.	.	8c	.	.	8e-	.	.	8e-	.	.
8r	.	.	8G-J	.	.	8cJ	.	.	8e-J	み	.	8e-J	み	.
[8AA-	.	.	4G-	.	.	4c	.	.	4e-	た	.	4e-	た	.
4AA-]	.	.	.	.	.	.	.	.	.	.	.	.	.	.
.	.	.	8r	.	.	8r	.	.	8r	.	.	8r	.	.
4AA-	.	.	8cL	.	.	8e-L	.	.	8g-L	な	.	8g-L	な	.
.	.	.	[8cJ	.	.	[8e-J	.	.	[8g-J	が	.	[8g-J	が	.
=44	=44	=44	=44	=44	=44	=44	=44	=44	=44	=44	=44	=44	=44	=44
4AAn	.	.	4c]	.	.	4e-]	.	.	4g-]	.	.	4g-]	.	.
8r	.	.	8AnL	.	.	8d-L	.	.	8fL	れ	.	8fL	れ	.
[8AA	.	.	[8AJ	.	.	[8d-J	.	.	[8fJ	ぼ	.	[8fJ	ぼ	.
4AA]	.	.	4A]	.	.	4d-]	.	.	4f]	.	.	4f]	.	.
4AA	.	.	8G-L	.	.	8cL	.	.	8e-L	し	.	8e-L	し	.
.	.	.	[8G-J	.	.	[8cJ	.	.	[8e-J	を	.	[8e-J	を	.
=45	=45	=45	=45	=45	=45	=45	=45	=45	=45	=45	=45	=45	=45	=45
4BB-	.	.	8G-L]	.	.	8cL]	.	.	8e-L]	.	.	8e-L]	.	.
.	.	.	8F	.	.	8B-	.	.	8d-	.	.	8d-	.	.
8r	.	.	8FJ	.	.	8B-J	.	.	8d-J	み	.	8d-J	み	.
[8BB-	.	.	2F	.	.	2B-	.	.	2d-	た	.	2d-	た	.
4BB-]	.	.	.	.	.	.	.	.	.	.	.	.	.	.
4BB-	.	.	.	.	.	.	.	.	.	.	.	.	.	.
.	.	.	8r	.	.	8r	.	.	8r	.	.	8r	.	.
=46	=46	=46	=46	=46	=46	=46	=46	=46	=46	=46	=46	=46	=46	=46
4EE-	.	.	2B-	.	.	2e-	.	.	2g-	uh	.	4d-	ね	.
4EE-	.	.	.	.	.	.	.	.	.	.	.	4G-	が	.
4EE-	.	.	2B-	.	.	2e-	.	.	2g-	uh	.	4G-	う	.
4EE-	.	.	.	.	.	.	.	.	.	.	.	4e-	ぼ	.
=47	=47	=47	=47	=47	=47	=47	=47	=47	=47	=47	=47	=47	=47	=47
1FF	.	.	1An	.	.	1c	.	.	1f	uh	.	4d-	く	.
.	.	.	.	.	.	.	.	.	.	.	.	4c	の	.
.	.	.	.	.	.	.	.	.	.	.	.	4c	う	.
.	.	.	.	.	.	.	.	.	.	.	.	4d-	た	.
=48	=48	=48	=48	=48	=48	=48	=48	=48	=48	=48	=48	=48	=48	=48
1FF	lu	.	1f	lu	.	4r	.	.	4r	.	.	1r	.	.
.	.	.	.	.	.	2.d-	lu	.	4r	.	.	.	.	.
.	.	.	.	.	.	.	.	.	4a-	lu	.	.	.	.
.	.	.	.	.	.	.	.	.	4g-	.	.	.	.	.
=49	=49	=49	=49	=49	=49	=49	=49	=49	=49	=49	=49	=49	=49	=49
1BB-	.	p	1B-	ha	p	1d-	ha	p	1f	ha	mp p	8d-L	そ	.
.	.	.	.	.	.	.	.	.	.	.	.	8d-	ば	.
.	.	.	.	.	.	.	.	.	.	.	.	8d-	に	.
.	.	.	.	.	.	.	.	.	.	.	.	8cJ	い	.
.	.	.	.	.	.	.	.	.	.	.	.	8d-L	る	.
.	.	.	.	.	.	.	.	.	.	.	.	8e-	だ	.
.	.	.	.	.	.	.	.	.	.	.	.	8f	け	.
.	.	.	.	.	.	.	.	.	.	.	.	[8fJ	で	.
=50	=50	=50	=50	=50	=50	=50	=50	=50	=50	=50	=50	=50	=50	=50
1FF	.	.	1c	.	.	1f	.	.	2a-	.	.	2f]	.	.
.	.	.	.	.	.	.	.	.	8r	.	.	8r	.	.
.	.	.	.	.	.	.	.	.	4c	ほん	.	4A-	ほん	.
.	.	.	.	.	.	.	.	.	8c	と	.	8A-	と	.
=51	=51	=51	=51	=51	=51	=51	=51	=51	=51	=51	=51	=51	=51	=51
2GG-	.	.	2B-	.	.	2d-	ha	.	8d-L	し	.	8B-L	し	.
.	.	.	.	.	.	.	.	.	8d-	あ	.	8B-	あ	.
.	.	.	.	.	.	.	.	.	8f	わ	.	8d-	わ	.
.	.	.	.	.	.	.	.	.	8fJ	せ	.	8d-J	せ	.
2AA-	.	.	2c	.	.	2e-	.	.	8g-L	だ	.	8e-L	だ	.
.	.	.	.	.	.	.	.	.	8f	っ	.	8d-	っ	.
.	.	.	.	.	.	.	.	.	8g-	た	.	8e-	た	.
.	.	.	.	.	.	.	.	.	8g-J	な	.	8e-J	な	.
=52	=52	=52	=52	=52	=52	=52	=52	=52	=52	=52	=52	=52	=52	=52
1D-	.	.	2.A-	.	.	2.d-	.	.	2a-	.	.	2f	.	.
.	.	.	.	.	.	.	.	.	2r	.	.	2r	.	.
.	.	.	4A-	.	.	4d-	uh	.	.	.	.	.	.	.
=53	=53	=53	=53	=53	=53	=53	=53	=53	=53	=53	=53	=53	=53	=53
1BB-	.	.	4B-	.	.	4d-	pa	.	1f	uh	.	8d-L	そ	.
.	.	.	.	.	.	.	.	.	.	.	.	8d-	ば	.
.	.	.	8r	.	.	8r	.	.	.	.	.	8d-	に	.
.	.	.	[8B-	.	.	[8d-	pa	.	.	.	.	8cJ	い	.
.	.	.	4B-]	.	.	4d-]	.	.	.	.	.	8d-L	る	.
.	.	.	.	.	.	.	.	.	.	.	.	8e-	だ	.
.	.	.	4B-	.	.	4d-	pa	.	.	.	.	8f	け	.
.	.	.	.	.	.	.	.	.	.	.	.	8fJ	で	.
=54	=54	=54	=54	=54	=54	=54	=54	=54	=54	=54	=54	=54	=54	=54
1GG-	.	.	4B-	.	.	4d-	pa	.	1g-	uh	.	4r	.	.
.	.	.	8r	.	.	8r	.	.	.	.	.	8g-L	た	.
.	.	.	[8B-	.	.	[8d-	pa	.	.	.	.	[8fJ	だ	.
.	.	.	4B-]	.	.	4d-]	.	.	.	.	.	4f]	.	.
.	.	.	4B-	.	.	4d-	pa	.	.	.	.	8e-L	そ	.
.	.	.	.	.	.	.	.	.	.	.	.	[8e-J	れ	.
=55	=55	=55	=55	=55	=55	=55	=55	=55	=55	=55	=55	=55	=55	=55
1AA-	.	.	4c	.	.	4e-	pa	.	1a-	uh	.	4e-]	.	.
.	.	.	8r	.	.	8r	.	.	.	.	.	8fL	だ	.
.	.	.	[8c	.	.	[8e-	pa	.	.	.	.	[8d-J	け	.
.	.	.	4c]	.	.	4e-]	.	.	.	.	.	8d-L]	.	.
.	.	.	.	.	.	.	.	.	.	.	.	8c	.	.
.	.	.	4c	.	.	4e-	pa	.	.	.	.	8c	で	.
.	.	.	.	.	.	.	.	.	.	.	.	[8d-J	さ	.
=56	=56	=56	=56	=56	=56	=56	=56	=56	=56	=56	=56	=56	=56	=56
4D-	.	<	4d-	.	<	4f	.	<	4a-	pa	<	1d-]	.	.
8r	.	.	8r	.	.	8r	.	.	8r	.	.	.	.	.
[8D-	.	.	[8d-	.	.	[8f	.	.	[8a-	pa	.	.	.	.
4D-]	.	.	4d-]	.	.	4f]	.	.	4a-]	.	.	.	.	.
4D-	.	[[	4d-	.	[[	4f	.	[[	4a-	pa	[[	.	.	.
=57	=57	=57	=57	=57	=57	=57	=57	=57	=57	=57	=57	=57	=57	=57
8FFL	.	f	8cL	.	f	8fL	.	f	8anL	ba	f	1r	.	.
8FFJ	.	.	8cJ	.	.	8fJ	.	.	8aJ	ba	.	.	.	.
8r	.	.	8r	.	.	8r	.	.	8r	.	.	.	.	.
8FF	.	.	8c	.	.	8f	.	.	8a	ba	.	.	.	.
8FF	.	.	8c	.	.	8f	.	.	8a	ba	.	.	.	.
8r	.	.	8r	.	.	8r	.	.	8r	.	.	.	.	.
8FFL	.	.	8cL	.	.	8fL	.	.	8aL	ba	.	.	.	.
8FFJ	.	.	8cJ	.	.	8fJ	.	.	8aJ	ba	.	.	.	.
=58	=58	=58	=58	=58	=58	=58	=58	=58	=58	=58	=58	=58	=58	=58
4r	.	.	4r	.	.	4r	.	.	4r	.	.	4r	.	f
2.FF	.	.	2.c	.	.	2.f	ha	.	4b-	あ	.	4g-	あ	.
.	.	.	.	.	.	.	.	.	4a-	い	.	4f	い	.
.	.	.	.	.	.	.	.	.	4g-	が	.	4e-	が	.
=59	=59	=59	=59	=59	=59	=59	=59	=59	=59	=59	=59	=59	=59	=59
4BB-	.	.	8d-L	ぼ	.	8d-L	ぼ	.	8fL	ぼ	.	8d-L	ぼ	.
.	.	.	8d-	く	.	8d-	く	.	8f	く	.	8d-	く	.
8r	.	.	8d-	に	.	8d-	に	.	8f	に	.	8d-	に	.
[8BB-	.	.	8cJ	か	.	8cJ	か	.	8e-J	か	.	8cJ	か	.
4BB-]	.	.	8d-L	み	.	8d-L	み	.	8fL	み	.	8d-L	み	.
.	.	.	8e-	つ	.	8e-	つ	.	8g-	つ	.	8e-	つ	.
4BB-	.	.	8f	い	.	8f	い	.	8a-	い	.	8f	い	.
.	.	.	[8fJ	て	.	[8fJ	て	.	[8a-J	て	.	[8fJ	て	.
=60	=60	=60	=60	=60	=60	=60	=60	=60	=60	=60	=60	=60	=60	=60
4FF	.	.	2f]	.	.	2f]	.	.	2a-]	.	.	2f]	.	.
8r	.	.	.	.	.	.	.	.	.	.	.	.	.	.
[8FF	.	.	.	.	.	.	.	.	.	.	.	.	.	.
4FF]	.	.	8r	.	.	8r	.	.	8r	.	.	8r	.	.
.	.	.	8A-L	は	.	8A-L	は	.	8cL	は	.	8A-L	は	.
4FF	.	.	8A-	な	.	8A-	な	.	8c	な	.	8A-	な	.
.	.	.	8A-J	さ	.	8A-J	さ	.	8cJ	さ	.	8A-J	さ	.
=61	=61	=61	=61	=61	=61	=61	=61	=61	=61	=61	=61	=61	=61	=61
4GG-	.	.	4B-	ない	.	4B-	ない	.	4d-	ない	.	4B-	ない	.
8r	.	.	8d-L	と	.	8d-L	と	.	8fL	と	.	8d-L	と	.
[8AA-	.	.	8d-J	い	.	8d-J	い	.	8fJ	い	.	8d-J	い	.
4AA-]	.	.	8e-L	う	.	8e-L	う	.	8g-L	う	.	8e-L	う	.
.	.	.	8d-	け	.	8d-	け	.	8f	け	.	8d-	け	.
4AA-	.	.	8e-	れ	.	8e-	れ	.	8g-	れ	.	8e-	れ	.
.	.	.	8e-J	ど	.	8e-J	ど	.	8g-J	ど	.	8e-J	ど	.
=62	=62	=62	=62	=62	=62	=62	=62	=62	=62	=62	=62	=62	=62	=62
4D-	.	.	2f	.	.	2f	.	.	2a-	.	.	2f	.	.
8r	.	.	.	.	.	.	.	.	.	.	.	.	.	.
[8D-	.	.	.	.	.	.	.	.	.	.	.	.	.	.
4D-]	.	.	4r	.	.	4r	.	.	4r	.	.	4r	.	.
4C	.	.	4c	.	.	4e-	.	.	4g-	uh	.	8r	.	.
.	.	.	.	.	.	.	.	.	.	.	.	8A-	さ	.
=63	=63	=63	=63	=63	=63	=63	=63	=63	=63	=63	=63	=63	=63	=63
4BB-	.	.	4B-	.	.	4d-	.	.	4f	pa	.	4d-	みし	.
8r	.	.	8r	.	.	8r	.	.	8r	.	.	8d-L	さ	.
[8BB-	.	.	[8B-	.	.	[8d-	.	.	[8f	pa	.	8cJ	の	.
4BB-]	.	.	2B-]	.	.	2d-]	.	.	2f]	.	.	8d-L	か	.
.	.	.	.	.	.	.	.	.	.	.	.	8e-	た	.
4BB-	.	.	.	.	.	.	.	.	.	.	.	8f	ち	.
.	.	.	.	.	.	.	.	.	.	.	.	8fJ	は	.
=64	=64	=64	=64	=64	=64	=64	=64	=64	=64	=64	=64	=64	=64	=64
4GG-	.	.	4d-	.	.	4g-	pa	.	4r	.	.	4r	.	.
8r	.	.	8r	.	.	8r	.	.	8b-L	か	.	8g-L	か	.
[8GG-	.	.	[8d-	.	.	[8g-	pa	.	[8a-J	わ	.	[8fJ	わ	.
4GG-]	.	.	4d-]	.	.	4g-]	.	.	4a-]	.	.	4f]	.	.
4GG-	.	.	4d-	.	.	4g-	pa	.	8g-L	ら	.	8e-L	ら	.
.	.	.	.	.	.	.	.	.	[8g-J	な	.	[8e-J	な	.
=65	=65	=65	=65	=65	=65	=65	=65	=65	=65	=65	=65	=65	=65	=65
4AA-	.	.	4e-	.	.	4a-	pa	.	4g-]	い	.	4e-]	い	.
8r	.	.	8r	.	.	8r	.	.	8a-L	み	.	8fL	み	.
[8AA-	.	.	[8e-	.	.	[8a-	pa	.	[8fJ	た	.	[8d-J	た	.
4AA-]	.	.	4e-]	.	.	4a-]	.	.	8fL]	.	.	8d-L]	.	.
.	.	.	.	.	.	.	.	.	8e-	.	.	8c	.	.
4AA-	.	.	4e-	.	.	4a-	pa	.	8e-	い	.	8c	い	.
.	.	.	.	.	.	.	.	.	[8fJ	だ	.	[8d-J	だ	.
=66	=66	=66	=66	=66	=66	=66	=66	=66	=66	=66	=66	=66	=66	=66
4D-	.	.	2A-	.	.	2a-	ha	.	2f]	.	.	1d-]	.	.
8r	.	.	.	.	.	.	.	.	.	.	.	.	.	.
[8D-	.	.	.	.	.	.	.	.	.	.	.	.	.	.
8D-L]	.	.	2d-	.	.	2f	.	.	2an	ah	.	.	.	.
8D-	.	.	.	.	.	.	.	.	.	.	.	.	.	.
8C	.	.	.	.	.	.	.	.	.	.	.	.	.	.
8CJ	.	.	.	.	.	.	.	.	.	.	.	.	.	.
=67	=67	=67	=67	=67	=67	=67	=67	=67	=67	=67	=67	=67	=67	=67
4BB-	.	.	8d-L	ま	.	8d-L	ま	.	8fL	ま	.	8d-L	ま	.
.	.	.	8d-	い	.	8d-	い	.	8f	い	.	8d-	い	.
8r	.	.	8d-	あ	.	8d-	あ	.	8f	あ	.	8d-	あ	.
[8BB-	.	.	8d-J	が	.	8d-J	が	.	8fJ	が	.	8d-J	が	.
4BB-]	.	.	8r	.	.	8r	.	.	8r	.	.	8r	.	.
.	.	.	8e-L	て	.	8e-L	て	.	8g-L	て	.	8e-L	て	.
4BB-	.	.	8f	ゆ	.	8f	ゆ	.	8a-	ゆ	.	8f	ゆ	.
.	.	.	[8fJ	け	.	[8fJ	け	.	[8a-J	け	.	[8fJ	け	.
=68	=68	=68	=68	=68	=68	=68	=68	=68	=68	=68	=68	=68	=68	=68
4FF	.	.	2f]	.	.	2f]	.	.	2a-]	.	.	2f]	.	.
8r	.	.	.	.	.	.	.	.	.	.	.	.	.	.
[8FF	.	.	.	.	.	.	.	.	.	.	.	.	.	.
4FF]	.	.	8r	.	.	8r	.	.	8r	.	.	8r	.	.
.	.	.	8A-L	い	.	8A-L	い	.	8cL	い	.	8A-L	い	.
4FF	.	.	8A-	つ	.	8A-	つ	.	8c	つ	.	8A-	つ	.
.	.	.	8A-J	か	.	8A-J	か	.	8cJ	か	.	8A-J	か	.
=69	=69	=69	=69	=69	=69	=69	=69	=69	=69	=69	=69	=69	=69	=69
4GG-	.	.	8B-L	よ	.	8B-L	よ	.	8d-L	よ	.	8B-L	よ	.
.	.	.	8B-	る	.	8B-	る	.	8d-	る	.	8B-	る	.
8r	.	.	8d-	の	.	8d-	の	.	8f	の	.	8d-	の	.
[8AA-	.	.	8d-J	む	.	8d-J	む	.	8fJ	む	.	8d-J	む	.
4AA-]	.	.	8e-L	こ	.	8e-L	こ	.	8g-L	こ	.	8e-L	こ	.
.	.	.	8d-	う	.	8d-	う	.	8f	う	.	8d-	う	.
4AA-	.	.	8e-	が	.	8e-	が	.	8g-	が	.	8e-	が	.
.	.	.	8e-J	わ	.	8e-J	わ	.	8g-J	わ	.	8e-J	わ	.
=70	=70	=70	=70	=70	=70	=70	=70	=70	=70	=70	=70	=70	=70	=70
4D-	.	.	2f	.	.	2f	.	.	2a-	.	.	2f	.	.
8r	.	.	.	.	.	.	.	.	.	.	.	.	.	.
[8D-	.	.	.	.	.	.	.	.	.	.	.	.	.	.
4D-]	.	.	4r	.	.	4r	.	.	4r	.	.	4r	.	.
4C	.	.	4c	.	.	4e-	.	.	4g-	uh	.	4r	.	.
=71	=71	=71	=71	=71	=71	=71	=71	=71	=71	=71	=71	=71	=71	=71
4BB-	.	.	4B-	.	.	4d-	.	.	4f	pa	.	4d-	うん	.
8r	.	.	8r	.	.	8r	.	.	8r	.	.	8d-L	ざ	.
[8BB-	.	.	[8B-	.	.	[8d-	.	.	[8f	pa	.	8cJ	り	.
4BB-]	.	.	2B-]	.	.	2d-]	.	.	2f]	.	.	8d-L	す	.
.	.	.	.	.	.	.	.	.	.	.	.	8e-	る	.
4BB-	.	.	.	.	.	.	.	.	.	.	.	8f	ほ	.
.	.	.	.	.	.	.	.	.	.	.	.	8fJ	ど	.
=72	=72	=72	=72	=72	=72	=72	=72	=72	=72	=72	=72	=72	=72	=72
4GG-	.	.	4d-	.	.	4g-	pa	.	4r	.	.	4r	.	.
8r	.	.	8r	.	.	8r	.	.	8b-L	ひ	.	8g-L	ひ	.
[8GG-	.	.	[8d-	.	.	[8g-	pa	.	[8a-J	か	.	[8fJ	か	.
4GG-]	.	.	4d-]	.	.	4g-]	.	.	4a-]	.	.	4f]	.	.
4GG-	.	.	4d-	.	.	4g-	pa	.	8g-L	れ	.	8e-L	れ	.
.	.	.	.	.	.	.	.	.	[8g-J	き	.	[8e-J	き	.
=73	=73	=73	=73	=73	=73	=73	=73	=73	=73	=73	=73	=73	=73	=73
4AA-	.	.	4e-	.	.	4a-	pa	.	4g-]	.	.	4e-]	.	.
8r	.	.	8r	.	.	8r	.	.	8a-L	み	.	8fL	み	.
[8AA-	.	.	[8e-	.	.	[8a-	pa	.	[8fJ	の	.	[8d-J	の	.
4AA-]	.	.	4e-]	.	.	4a-]	.	.	8fL]	.	.	8d-L]	.	.
.	.	.	.	.	.	.	.	.	8e-	.	.	8c	.	.
4AA-	.	.	4e-	.	.	4a-	pa	.	8e-	う	.	8c	う	.
.	.	.	.	.	.	.	.	.	8fJ	た	.	[8d-J	た	.
=74	=74	=74	=74	=74	=74	=74	=74	=74	=74	=74	=74	=74	=74	=74
4D-	.	.	4d-	.	.	4a-	pa	.	2f	.	.	2d-]	.	.
8AA-L	.	.	8r	.	.	8r	.	.	.	.	.	.	.	.
[8D-J	.	.	[8d-	.	.	[8a-	pa	.	.	.	.	.	.	.
4D-]	.	.	4d-]	.	.	4a-]	.	.	4r	.	.	4r	.	.
8D-L	.	.	8d-L	.	.	8fL	.	.	8a-L	.	.	8a-L	も	.
8AA-J	.	.	[8d-J	.	.	[8fJ	.	.	[8a-J	.	.	[8a-J	う	.
=75	=75	=75	=75	=75	=75	=75	=75	=75	=75	=75	=75	=75	=75	=75
4GG-	.	.	4d-]	.	.	4f]	.	.	4a-]	.	.	4a-]	.	.
8r	.	.	8B-L	.	.	8e-L	.	.	8g-L	.	.	8g-L	き	.
[8GG-	.	.	[8B-J	.	.	[8e-J	.	.	[8g-J	.	.	[8g-J	ず	.
4GG-]	.	.	4B-]	.	.	4e-]	.	.	4g-]	.	.	4g-]	.	.
4GG-	.	.	8A-L	.	.	8d-L	.	.	8fL	.	.	8fL	つ	.
.	.	.	[8A-J	.	.	[8d-J	.	.	[8fJ	.	.	[8fJ	か	.
=76	=76	=76	=76	=76	=76	=76	=76	=76	=76	=76	=76	=76	=76	=76
4AA-	.	.	8A-L]	.	.	8d-L]	.	.	8fL]	.	.	8fL]	.	.
.	.	.	8G-	.	.	8c	.	.	8e-	.	.	8e-	.	.
8r	.	.	8G-J	.	.	8cJ	.	.	8e-J	.	.	8e-J	な	.
[8AA-	.	.	4G-	.	.	4c	.	.	4e-	.	.	4e-	い	.
4AA-]	.	.	.	.	.	.	.	.	.	.	.	.	.	.
.	.	.	8r	.	.	8r	.	.	8r	.	.	8r	.	.
4AA-	.	.	8cL	.	.	8e-L	.	.	8g-L	.	.	8g-L	も	.
.	.	.	[8cJ	.	.	[8e-J	.	.	[8g-J	.	.	[8g-J	う	.
=77	=77	=77	=77	=77	=77	=77	=77	=77	=77	=77	=77	=77	=77	=77
4AAn	.	.	4c]	.	.	4e-]	.	.	4g-]	.	.	4g-]	.	.
8r	.	.	8AnL	.	.	8d-L	.	.	8fL	.	.	8fL	き	.
[8AA	.	.	[8AJ	.	.	[8d-J	.	.	[8fJ	.	.	[8fJ	ず	.
4AA]	.	.	4A]	.	.	4d-]	.	.	4f]	.	.	4f]	.	.
4AA	.	.	8G-L	.	.	8cL	.	.	8e-L	.	.	8e-L	つ	.
.	.	.	[8G-J	.	.	[8cJ	.	.	[8e-J	.	.	[8e-J	け	.
=78	=78	=78	=78	=78	=78	=78	=78	=78	=78	=78	=78	=78	=78	=78
4BB-	.	.	8G-L]	.	.	8cL]	.	.	8e-L]	.	.	8e-L]	.	.
.	.	.	8F	.	.	8B-	.	.	8d-	.	.	8d-	.	.
8r	.	.	8FJ	.	.	8B-J	.	.	8d-J	.	.	8d-J	な	.
[8BB-	.	.	2F	.	.	2B-	.	.	2d-	.	.	4d-	い	.
4BB-]	.	.	.	.	.	.	.	.	.	.	.	.	.	.
.	.	.	.	.	.	.	.	.	.	.	.	4r	.	.
4BB-	.	.	.	.	.	.	.	.	.	.	.	.	.	.
.	.	.	8r	.	.	8r	.	.	8r	.	.	8r	.	.
=79	=79	=79	=79	=79	=79	=79	=79	=79	=79	=79	=79	=79	=79	=79
4EE-	.	.	2B-	.	.	2e-	.	.	2g-	.	.	4d-	ひ	.
4EE-	.	.	.	.	.	.	.	.	.	.	.	4G-	か	.
4EE-	.	.	2B-	.	.	2e-	.	.	2g-	.	.	4G-	れ	.
4EE-	.	.	.	.	.	.	.	.	.	.	.	4e-	き	.
=80	=80	=80	=80	=80	=80	=80	=80	=80	=80	=80	=80	=80	=80	=80
4FF	.	.	1An	.	.	1c	.	.	1f	.	.	4d-	み	.
8r	.	.	.	.	.	.	.	.	.	.	.	4c	の	.
[8FF	.	.	.	.	.	.	.	.	.	.	.	.	.	.
4FF]	.	.	.	.	.	.	.	.	.	.	.	4c	う	.
4FF	.	.	.	.	.	.	.	.	.	.	.	4d-	た	.
=81	=81	=81	=81	=81	=81	=81	=81	=81	=81	=81	=81	=81	=81	=81
4BB-	.	.	1B-	.	.	1d-	.	.	1f	.	.	4r	.	.
8r	.	.	.	.	.	.	.	.	.	.	.	4r	.	.
[8BB-	.	.	.	.	.	.	.	.	.	.	.	.	.	.
4BB-]	.	.	.	.	.	.	.	.	.	.	.	2r	.	.
4BB-	.	.	.	.	.	.	.	.	.	.	.	.	.	.
=82	=82	=82	=82	=82	=82	=82	=82	=82	=82	=82	=82	=82	=82	=82
1r	.	.	4d-	ひ	.	4f	ひ	.	4a-	ひ	.	4d-	ひ	.
.	.	.	4G-	か	.	4B-	か	.	4d-	か	.	4G-	か	.
.	.	.	4G-	れ	.	4B-	れ	.	4d-	れ	.	4G-	れ	.
.	.	.	4e-	き	.	4g-	き	.	4b-	き	.	4e-	き	.
=83	=83	=83	=83	=83	=83	=83	=83	=83	=83	=83	=83	=83	=83	=83
1r	.	.	4d-	み	.	4f	み	.	4a-	み	.	4d-	み	.
.	.	.	4c	の	.	4e-	の	.	4g-	の	.	4c	の	.
.	.	.	4c	う	.	4e-	う	.	4g-	う	.	4c	う	.
.	.	.	4d-	た	.	4f	た	.	4a-	た	.	4d-	た	.
==	==	==	==	==	==	==	==	==	==	==	==	==	==	==
*-	*-	*-	*-	*-	*-	*-	*-	*-	*-	*-	*-	*-	*-	*-
